source/img/icons/site_gray.svg

<svg width="20" height="20" fill="none" xmlns="http://www.w3.org/2000/svg"><path d="M9.99 0C4.47 0 0 4.48 0 10s4.47 10 9.99 10C15.52 20 20 15.52 20 10S15.52 0 9.99 0zm6.93 6h-2.95a15.65 15.65 0 00-1.38-3.56A8.03 8.03 0 0116.92 6zM10 2.04c.83 1.2 1.48 2.53 1.91 3.96H8.09C8.52 4.57 9.17 3.24 10 2.04zM2.26 12C2.1 11.36 2 10.69 2 10s.1-1.36.26-2h3.38c-.08.66-.14 1.32-.14 2 0 .68.06 1.34.14 2H2.26zm.82 2h2.95c.32 1.25.78 2.45 1.38 3.56A7.987 7.987 0 013.08 14zm2.95-8H3.08a7.987 7.987 0 014.33-3.56A15.65 15.65 0 006.03 6zM10 17.96c-.83-1.2-1.48-2.53-1.91-3.96h3.82c-.43 1.43-1.08 2.76-1.91 3.96zM12.34 12H7.66c-.09-.66-.16-1.32-.16-2 0-.68.07-1.35.16-2h4.68c.09.65.16 1.32.16 2 0 .68-.07 1.34-.16 2zm.25 5.56c.6-1.11 1.06-2.31 1.38-3.56h2.95a8.03 8.03 0 01-4.33 3.56zM14.36 12c.08-.66.14-1.32.14-2 0-.68-.06-1.34-.14-2h3.38c.16.64.26 1.31.26 2s-.1 1.36-.26 2h-3.38z" fill="#1F3F68"/></svg>

<svg width="20" height="20" viewBox="0 0 20 20" fill="none" xmlns="http://www.w3.org/2000/svg">
<path d="M9.99 0C4.47 0 0 4.48 0 10C0 15.52 4.47 20 9.99 20C15.52 20 20 15.52 20 10C20 4.48 15.52 0 9.99 0ZM16.92 6H13.97C13.65 4.75 13.19 3.55 12.59 2.44C14.43 3.07 15.96 4.35 16.92 6ZM10 2.04C10.83 3.24 11.48 4.57 11.91 6H8.09C8.52 4.57 9.17 3.24 10 2.04ZM2.26 12C2.1 11.36 2 10.69 2 10C2 9.31 2.1 8.64 2.26 8H5.64C5.56 8.66 5.5 9.32 5.5 10C5.5 10.68 5.56 11.34 5.64 12H2.26ZM3.08 14H6.03C6.35 15.25 6.81 16.45 7.41 17.56C5.57 16.93 4.04 15.66 3.08 14ZM6.03 6H3.08C4.04 4.34 5.57 3.07 7.41 2.44C6.81 3.55 6.35 4.75 6.03 6ZM10 17.96C9.17 16.76 8.52 15.43 8.09 14H11.91C11.48 15.43 10.83 16.76 10 17.96ZM12.34 12H7.66C7.57 11.34 7.5 10.68 7.5 10C7.5 9.32 7.57 8.65 7.66 8H12.34C12.43 8.65 12.5 9.32 12.5 10C12.5 10.68 12.43 11.34 12.34 12ZM12.59 17.56C13.19 16.45 13.65 15.25 13.97 14H16.92C15.96 15.65 14.43 16.93 12.59 17.56ZM14.36 12C14.44 11.34 14.5 10.68 14.5 10C14.5 9.32 14.44 8.66 14.36 8H17.74C17.9 8.64 18 9.31 18 10C18 10.69 17.9 11.36 17.74 12H14.36Z" fill="#1F3F68"/>
</svg>
